X:1
T:Sunshine of Love
T:Sunshine of Love
T:James Milton Black
T:Richard Henry Gilbert, 1894
T:Public Domain Courtesy of the Cyber Hymnal™
T:Public Domain Courtesy of the Cyber Hymnal™
C:James Milton Black
Z:Public Domain
Z:Courtesy of the Cyber Hymnal™
%%score ( 1 2 ) ( 3 4 )
L:1/8
Q:1/4=107
M:6/8
K:A
V:1 treble 
V:2 treble 
V:3 bass 
V:4 bass 
V:1
 [A,C]2 [B,D] [CE]2 [CE] | [CF]3 [CE]3 | [DF]2 [DG] [FA]2 [FB] | [Ec]6 | [DB]2 [DB] [DB]2 [DB] | %5
w: 1.~In this world, where|sha- dows|Dark and drear a-|bound,|Where the tears of|
w: 2.~Souls in dark- ness|grop- ing,|Seek- ing for the|way,|Lead- ing up to|
w: 3.~Soon will end the|work time,|And the pain and|strife,|Then we’ll rest to-|
 [DB]3 [DG]3 | [CA]2 [EA] [FA]2 [DF] | [CE]6 | [A,C]2 [B,D] [CE]2 [CE] | [CF]3 [CE]3 | %10
w: sor- row|Plen- ti- ful are|found,|Let us prove our|un- ion|
w: glo- ry,|Realm of end- less|day;|Com- fort, cheer and|help them,|
w: ge- ther|Blest with peace and|life;|With our lov- ing|Sav- ior|
 [DF]2 [DG] [FA]2 [FB] | [Ec]6 | [FB]2 [FB] [FA]2 [DF] | [CE]3 [Fd]3 | [Ec]2 [Ed] [Ec]2 [EB] | %15
w: With the Christ a-|bove,|By the joy of|show- ing|Bright sun- shine of|
w: Doubt and fear re-|move,|Mak- ing plain the|path- way|With sun- shine of|
w: Now en- throned a-|bove,|Bask- ing then for-|ev- er|In sun- shine of|
 [EA]6 |:"^Refrain" e3 c3 | [DB]3 [CA]3 | [EB]2 [EB] [EA]2 [EB] | [Ec]6 |1 [EB]2 [EB] [EB]2 [EB] | %21
w: love.||||||
w: love.|Sun- shine,|sun- shine,|Com- ing from a-|bove,|Keep it beam- ing|
w: love.||||||
 [EB]3 [EB]3 | [EB]2 [EB] [Ac]2 [A^d] | [Ge]6 :|2 [FB]2 [FB] [FA]2 [DF] || [CE]3 [Fd]3 | %26
w: |||||
w: ev- er,|Bright sun- shine of|love,|Keep it beam- ing|ev- er,|
w: |||||
 [Ec]2 [Ed] [Ec]2 [EB] | [EA]6 |] %28
w: ||
w: Bright sun- shine of|love.|
w: ||
V:2
 x6 | x6 | x6 | x6 | x6 | x6 | x6 | x6 | x6 | x6 | x6 | x6 | x6 | x6 | x6 | x6 |: (E2 E) (E2 E) | %17
 x6 | x6 | x6 |1 x6 | x6 | x6 | x6 :|2 x6 || x6 | x6 | x6 |] %28
V:3
 [A,,E,]2 [A,,E,] [A,,A,]2 [A,,A,] | [A,,A,]3 [A,,A,]3 | [D,A,]2 [D,A,] [D,A,]2 [D,A,] | [A,,A,]6 | %4
w: ~ ~ ~ ~|~ ~|~ ~ ~ ~|~|
 [E,G,]2 [E,G,] [E,G,]2 [E,G,] | [E,G,]3 [E,B,]3 | [A,,A,]2 [C,A,] [D,A,]2 [D,A,] | [A,,A,]6 | %8
w: ~ ~ ~ ~|~ ~|~ ~ ~ ~|~|
 [A,,E,]2 [A,,E,] [A,,A,]2 [A,,A,] | [A,,A,]3 [A,,A,]3 | [D,A,]2 [D,A,] [D,A,]2 [D,A,] | [A,,A,]6 | %12
w: ~ ~ ~ ~|~ ~|~ ~ ~ ~|~|
 [D,A,]2 [D,A,] [D,D]2 [D,A,] | [A,,A,]3 [D,A,]3 | [E,A,]2 [E,G,] [E,A,]2 [E,D] | [A,,A,C]6 |: %16
w: ~ ~ ~ ~|~ ~|~ ~ ~ ~|~|
 [A,C]2 [A,C] A,2 A, | [E,G,]3 [F,A,]3 | [E,G,]2 [E,G,] [E,F,]2 [E,G,] | A,6 |1 %20
w: Sun- shine, bless- èd||||
 [E,G,]2 [E,G,] [E,G,]2 [E,G,] | [E,G,]3 [E,G,]3 | [B,,G,]2 [B,,G,] [B,,B,]2 [B,,B,] | %23
w: |||
 (B,3 =D3) :|2 [D,A,]2 [D,A,] [D,D]2 [D,A,] || [A,,A,]3 [D,A,]3 | [E,A,]2 [E,G,] [E,A,]2 [E,D] | %27
w: ||||
 [A,,A,C]6 |] %28
w: |
V:4
 x6 | x6 | x6 | x6 | x6 | x6 | x6 | x6 | x6 | x6 | x6 | x6 | x6 | x6 | x6 | x6 |: x3 A,2 A, | x6 | %18
 x6 | A,6 |1 x6 | x6 | x6 | E,6 :|2 x6 || x6 | x6 | x6 |] %28

